images/indikatorenset/4148.svg

<?xml version="1.0" standalone="no"?><!DOCTYPE svg PUBLIC "-//W3C//DTD SVG 1.1//EN" "http://www.w3.org/Graphics/SVG/1.1/DTD/svg11.dtd"><svg xmlns:xlink="http://www.w3.org/1999/xlink" version="1.1" class="highcharts-root" style="font-family:Arial;font-size:12px;" xmlns="http://www.w3.org/2000/svg" width="485" height="415"><desc>Created with Highcharts 5.0.7</desc><defs><clipPath id="highcharts-isf661i-1"><rect x="0" y="0" width="410" height="291" fill="none"></rect></clipPath></defs><rect fill="#fbfbfb" class="highcharts-background" x="0" y="0" width="485" height="415" rx="0" ry="0"></rect><rect fill="none" class="highcharts-plot-background" x="65" y="58" width="410" height="291"></rect><g class="highcharts-grid highcharts-xaxis-grid "><path fill="none" class="highcharts-grid-line" d="M 68.5 58 L 68.5 349" opacity="1"></path><path fill="none" class="highcharts-grid-line" d="M 148.5 58 L 148.5 349" opacity="1"></path><path fill="none" class="highcharts-grid-line" d="M 229.5 58 L 229.5 349" opacity="1"></path><path fill="none" class="highcharts-grid-line" d="M 309.5 58 L 309.5 349" opacity="1"></path><path fill="none" class="highcharts-grid-line" d="M 390.5 58 L 390.5 349" opacity="1"></path><path fill="none" class="highcharts-grid-line" d="M 470.5 58 L 470.5 349" opacity="1"></path></g><g class="highcharts-grid highcharts-yaxis-grid "><path fill="none" stroke="#e6e6e6" stroke-width="1" class="highcharts-grid-line" d="M 65 349.5 L 475 349.5" opacity="1"></path><path fill="none" stroke="#e6e6e6" stroke-width="1" class="highcharts-grid-line" d="M 65 276.5 L 475 276.5" opacity="1"></path><path fill="none" stroke="#e6e6e6" stroke-width="1" class="highcharts-grid-line" d="M 65 204.5 L 475 204.5" opacity="1"></path><path fill="none" stroke="#e6e6e6" stroke-width="1" class="highcharts-grid-line" d="M 65 131.5 L 475 131.5" opacity="1"></path><path fill="none" stroke="#e6e6e6" stroke-width="1" class="highcharts-grid-line" d="M 65 57.5 L 475 57.5" opacity="1"></path></g><rect fill="none" class="highcharts-plot-border" x="65" y="58" width="410" height="291"></rect><g class="highcharts-axis highcharts-xaxis "><path fill="none" class="highcharts-axis-line" stroke="#ccd6eb" stroke-width="1" d="M 65 349.5 L 475 349.5"></path></g><g class="highcharts-axis highcharts-yaxis "><path fill="none" class="highcharts-axis-line" d="M 65 58 L 65 349"></path></g><g class="highcharts-series-group"><g class="highcharts-series highcharts-series-0 highcharts-line-series highcharts-color-undefined " transform="translate(65,58) scale(1 1)" clip-path="url(#highcharts-isf661i-1)"><path fill="none" d="M 4.0196078431337 57.74604000000002 L 84.41176470588 55.82253 L 164.80392156863 54.31806 L 245.19607843137 52.06135500000002 L 325.58823529412 50.692200000000014 L 405.98039215687 49.766820000000024" class="highcharts-graph" stroke="#B375AB" stroke-width="2" stroke-linejoin="round" stroke-linecap="round"></path><path fill="none" d="M -5.9803921568663 57.74604000000002 L 4.0196078431337 57.74604000000002 L 84.41176470588 55.82253 L 164.80392156863 54.31806 L 245.19607843137 52.06135500000002 L 325.58823529412 50.692200000000014 L 405.98039215687 49.766820000000024 L 415.98039215687 49.766820000000024" stroke-linejoin="round" visibility="visible" stroke="rgba(192,192,192,0.0001)" stroke-width="22" class="highcharts-tracker"></path></g><g class="highcharts-markers highcharts-series-0 highcharts-line-series highcharts-color-undefined highcharts-tracker" transform="translate(65,58) scale(1 1)" clip-path="none"><path fill="#B375AB" d="M 8 58 A 4 4 0 1 1 7.999998000000167 57.99600000066666 Z" class="highcharts-point"></path><path fill="#B375AB" d="M 88 56 A 4 4 0 1 1 87.99999800000016 55.99600000066666 Z" class="highcharts-point"></path><path fill="#B375AB" d="M 168 54 A 4 4 0 1 1 167.99999800000018 53.99600000066666 Z" class="highcharts-point"></path><path fill="#B375AB" d="M 249 52 A 4 4 0 1 1 248.99999800000018 51.99600000066666 Z" class="highcharts-point"></path><path fill="#B375AB" d="M 329 51 A 4 4 0 1 1 328.9999980000002 50.99600000066666 Z" class="highcharts-point"></path><path fill="#B375AB" d="M 409 50 A 4 4 0 1 1 408.9999980000002 49.99600000066666 Z" class="highcharts-point"></path></g></g><text x="10" text-anchor="start" class="highcharts-title" style="color:#000000;font-size:14px;font-weight:bold;fill:#000000;" y="21"><tspan>2.2.a Erwachsene Einwohner mit Hauptwohnsitz im Kanton</tspan><tspan dy="17" x="10">Basel-Stadt</tspan><title>2.2.a Erwachsene Einwohner mit Hauptwohnsitz im Kanton Basel-Stadt</title></text><g class="highcharts-data-labels highcharts-series-0 highcharts-line-series highcharts-color-undefined " transform="translate(65,58) scale(1 1)" opacity="1"><g class="highcharts-label highcharts-data-label highcharts-data-label-color-undefined " transform="translate(-5,35)"><text x="5" style="font-size:11px;font-weight:bold;color:#000000;text-outline:1px contrast;fill:#000000;" y="16"><tspan x="5" y="16" class="highcharts-text-outline" fill="#FFFFFF" stroke="#FFFFFF" stroke-width="2px" stroke-linejoin="round">160 312</tspan><tspan x="5" y="16">160 312</tspan></text></g><g class="highcharts-label highcharts-data-label highcharts-data-label-color-undefined " transform="translate(79,46)"><text x="5" style="font-size:11px;font-weight:bold;color:#000000;text-outline:1px contrast;fill:#000000;" y="16"></text></g><g class="highcharts-label highcharts-data-label highcharts-data-label-color-undefined " transform="translate(160,44)"><text x="5" style="font-size:11px;font-weight:bold;color:#000000;text-outline:1px contrast;fill:#000000;" y="16"></text></g><g class="highcharts-label highcharts-data-label highcharts-data-label-color-undefined " transform="translate(240,42)"><text x="5" style="font-size:11px;font-weight:bold;color:#000000;text-outline:1px contrast;fill:#000000;" y="16"></text></g><g class="highcharts-label highcharts-data-label highcharts-data-label-color-undefined " transform="translate(321,41)"><text x="5" style="font-size:11px;font-weight:bold;color:#000000;text-outline:1px contrast;fill:#000000;" y="16"></text></g><g class="highcharts-label highcharts-data-label highcharts-data-label-color-undefined " transform="translate(365,27)"><text x="5" style="font-size:11px;font-weight:bold;color:#000000;text-outline:1px contrast;fill:#000000;" y="16"><tspan x="5" y="16" class="highcharts-text-outline" fill="#FFFFFF" stroke="#FFFFFF" stroke-width="2px" stroke-linejoin="round">165 796</tspan><tspan x="5" y="16">165 796</tspan></text></g></g><g class="highcharts-axis-labels highcharts-xaxis-labels "><text x="69.01960784313367" style="color:#000000;cursor:default;font-size:11px;fill:#000000;" text-anchor="middle" transform="translate(0,0)" y="368" opacity="1"><tspan>2010</tspan></text><text x="149.41176470588022" style="color:#000000;cursor:default;font-size:11px;fill:#000000;" text-anchor="middle" transform="translate(0,0)" y="368" opacity="1"><tspan>2011</tspan></text><text x="229.80392156862675" style="color:#000000;cursor:default;font-size:11px;fill:#000000;" text-anchor="middle" transform="translate(0,0)" y="368" opacity="1"><tspan>2012</tspan></text><text x="310.1960784313733" style="color:#000000;cursor:default;font-size:11px;fill:#000000;" text-anchor="middle" transform="translate(0,0)" y="368" opacity="1"><tspan>2013</tspan></text><text x="390.5882352941198" style="color:#000000;cursor:default;font-size:11px;fill:#000000;" text-anchor="middle" transform="translate(0,0)" y="368" opacity="1"><tspan>2014</tspan></text><text x="462.78125" style="color:#000000;cursor:default;font-size:11px;fill:#000000;" text-anchor="middle" transform="translate(0,0)" y="368" opacity="1"><tspan>2015</tspan></text></g><g class="highcharts-axis-labels highcharts-yaxis-labels "><text x="50" style="color:#000000;cursor:default;font-size:11px;fill:#000000;" text-anchor="end" transform="translate(0,0)" y="354" opacity="1"><tspan>0</tspan></text><text x="50" style="color:#000000;cursor:default;font-size:11px;fill:#000000;" text-anchor="end" transform="translate(0,0)" y="281" opacity="1"><tspan>50 000</tspan></text><text x="50" style="color:#000000;cursor:default;font-size:11px;fill:#000000;" text-anchor="end" transform="translate(0,0)" y="208" opacity="1"><tspan>100 000</tspan></text><text x="50" style="color:#000000;cursor:default;font-size:11px;fill:#000000;" text-anchor="end" transform="translate(0,0)" y="135" opacity="1"><tspan>150 000</tspan></text><text x="50" style="color:#000000;cursor:default;font-size:11px;fill:#000000;" text-anchor="end" transform="translate(0,0)" y="63" opacity="1"><tspan>200 000</tspan></text></g><text x="10" class="highcharts-credits" text-anchor="start" style="cursor:default;color:#000000;font-size:10px;fill:#000000;" y="400"><tspan>Quelle: Bundesamt für Statistik BFS, STATPOP</tspan></text></svg>

<svg class="highcharts-root" xmlns="http://www.w3.org/2000/svg" viewBox="0 0 485 415" font-family="Arial" font-size="12">
    <defs>
        <clipPath id="a">
            <path fill="none" d="M0 0h410v291H0z"/>
        </clipPath>
    </defs>
    <rect fill="#fbfbfb" class="highcharts-background" width="485" height="415" rx="0" ry="0"/>
    <path fill="none" class="highcharts-plot-background" d="M65 58h410v291H65z"/>
    <g class="highcharts-grid highcharts-xaxis-grid">
        <path fill="none" class="highcharts-grid-line" d="M68.5 58v291m80-291v291m81-291v291m80-291v291m81-291v291m80-291v291"/>
    </g>
    <g class="highcharts-grid highcharts-yaxis-grid">
        <path fill="none" stroke="#e6e6e6" class="highcharts-grid-line" d="M65 349.5h410m-410-73h410m-410-72h410m-410-73h410m-410-74h410"/>
    </g>
    <path fill="none" class="highcharts-plot-border" d="M65 58h410v291H65z"/>
    <g class="highcharts-axis highcharts-xaxis">
        <path fill="none" class="highcharts-axis-line" stroke="#ccd6eb" d="M65 349.5h410"/>
    </g>
    <g class="highcharts-axis highcharts-yaxis">
        <path fill="none" class="highcharts-axis-line" d="M65 58v291"/>
    </g>
    <g class="highcharts-series-group">
        <g class="highcharts-series highcharts-series-0 highcharts-line-series highcharts-color-undefined" transform="translate(65 58)" clip-path="url(#a)">
            <path fill="none" d="M4.02 57.746l80.392-1.923 80.392-1.505 80.392-2.257 80.392-1.369 80.392-.925" class="highcharts-graph" stroke="#B375AB" stroke-width="2" stroke-linejoin="round" stroke-linecap="round"/>
            <path fill="none" d="M-5.98 57.746h10l80.392-1.923 80.392-1.505 80.392-2.257 80.392-1.369 80.392-.925h10" stroke-linejoin="round" stroke="rgba(192,192,192,0.0001)" stroke-width="22" class="highcharts-tracker"/>
        </g>
        <g class="highcharts-markers highcharts-series-0 highcharts-line-series highcharts-color-undefined highcharts-tracker">
            <path fill="#B375AB" d="M73 116a4 4 0 1 1 0-.004zm80-2a4 4 0 1 1 0-.004zm80-2a4 4 0 1 1 0-.004zm81-2a4 4 0 1 1 0-.004zm80-1a4 4 0 1 1 0-.004zm80-1a4 4 0 1 1 0-.004z" class="highcharts-point"/>
        </g>
    </g>
    <text x="10" class="highcharts-title" y="21" color="#000" font-size="14" font-weight="700">
        <tspan>2.2.a Erwachsene Einwohner mit Hauptwohnsitz im Kanton</tspan><tspan dy="17" x="10">Basel-Stadt</tspan><title>2.2.a Erwachsene Einwohner mit Hauptwohnsitz im Kanton Basel-Stadt</title>
    </text>
    <g class="highcharts-data-labels highcharts-series-0 highcharts-line-series highcharts-color-undefined">
        <text x="5" style="text-outline:1px contrast" y="16" font-size="11" font-weight="700" color="#000" transform="translate(60 93)" class="highcharts-label highcharts-data-label highcharts-data-label-color-undefined">
            <tspan x="5" y="16" class="highcharts-text-outline" fill="#FFF" stroke="#FFF" stroke-width="2" stroke-linejoin="round">160 312</tspan><tspan x="5" y="16">160 312</tspan>
        </text>
        <text x="5" style="text-outline:1px contrast" y="16" font-size="11" font-weight="700" color="#000" transform="translate(430 85)" class="highcharts-label highcharts-data-label highcharts-data-label-color-undefined">
            <tspan x="5" y="16" class="highcharts-text-outline" fill="#FFF" stroke="#FFF" stroke-width="2" stroke-linejoin="round">165 796</tspan><tspan x="5" y="16">165 796</tspan>
        </text>
    </g>
    <g class="highcharts-axis-labels highcharts-xaxis-labels" text-anchor="middle" color="#000" cursor="default" font-size="11">
        <text x="69.02" y="368">
            <tspan>2010</tspan>
        </text>
        <text x="149.412" y="368">
            <tspan>2011</tspan>
        </text>
        <text x="229.804" y="368">
            <tspan>2012</tspan>
        </text>
        <text x="310.196" y="368">
            <tspan>2013</tspan>
        </text>
        <text x="390.588" y="368">
            <tspan>2014</tspan>
        </text>
        <text x="462.781" y="368">
            <tspan>2015</tspan>
        </text>
    </g>
    <g class="highcharts-axis-labels highcharts-yaxis-labels" text-anchor="end" color="#000" cursor="default" font-size="11">
        <text x="50" y="354">
            <tspan>0</tspan>
        </text>
        <text x="50" y="281">
            <tspan>50 000</tspan>
        </text>
        <text x="50" y="208">
            <tspan>100 000</tspan>
        </text>
        <text x="50" y="135">
            <tspan>150 000</tspan>
        </text>
        <text x="50" y="63">
            <tspan>200 000</tspan>
        </text>
    </g>
    <text x="10" class="highcharts-credits" y="400" cursor="default" color="#000" font-size="10">
        <tspan>Quelle: Bundesamt für Statistik BFS, STATPOP</tspan>
    </text>
</svg>
